tools/download-figma-icons/icons/outlined-large/accessability.svg

<svg width="64" height="64" viewBox="0 0 64 64" fill="none" xmlns="http://www.w3.org/2000/svg">
<path d="M49.3671 18.1035C50.4148 17.7543 51.5469 18.3197 51.8964 19.3672C52.2457 20.4149 51.6803 21.547 50.6328 21.8965L34 27.4395V37.5273L42.789 55.1055L42.8711 55.293C43.2305 56.2408 42.8207 57.3259 41.8945 57.7891C40.9683 58.2522 39.8551 57.9285 39.3125 57.0723L39.2109 56.8945L32 42.4727L24.789 56.8945C24.295 57.8825 23.0934 58.283 22.1054 57.7891C21.1175 57.2951 20.7169 56.0934 21.2109 55.1055L30 37.5273V27.4395L13.3671 21.8965L13.1777 21.8223C12.253 21.4063 11.776 20.3498 12.1035 19.3672C12.4312 18.3851 13.4465 17.8251 14.4355 18.0469L14.6328 18.1035L32 23.8926L49.3671 18.1035ZM37 11C37 13.7614 34.7614 16 32 16C29.2385 16 27 13.7614 27 11C27 8.23858 29.2385 6 32 6C34.7614 6 37 8.23858 37 11Z" fill="#1F1F1F"/>
</svg>

<svg xmlns="http://www.w3.org/2000/svg" width="64" height="64" fill="none" viewBox="0 0 64 64"><path fill="currentColor" d="M49.367 18.104a2 2 0 0 1 1.266 3.793L34 27.44v10.087l8.789 17.579.082.187a2 2 0 0 1-3.559 1.78l-.101-.178L32 42.473l-7.211 14.422a2 2 0 0 1-3.578-1.79L30 37.528V27.44l-16.633-5.542-.19-.075a2 2 0 0 1 1.258-3.775l.198.056L32 23.894zM37 11a5 5 0 1 1-10 0 5 5 0 0 1 10 0"/></svg>
